X: 1
T: The Irish Washerwoman
R: jig
M: 6/8
L: 1/8
K: Gmaj
|:BGG DGG|BGB dcB|cAA EAA|cAc edc|BGG DGG|BGB dcB|cBc Adc|BGG G3:||:BGG DGG|BGB BAG|AFF DFF|AFA AGF|EGG DGG|CGG B,GG|cBc Adc|BGG G3:|


Tune 92	Setting 28050

